!!!COM: Brahms, Johannes
!!!CNT: Deutscher
!!!TXO: Deutsche
!!!OTL: Liebe und Fru2hling
!!!OPS: Op. 3
!!!ONM: No. 2
!!!LYR: von Fallersleben
!!!ENC: Ayako
!!!YOR: Editionpeters
!!!ODT: 1853
!!NB: Vocal melody and text only encoded.
**kern	**silbe
*staff1	*
*clefG2 	*
*k[f#]	*
*M4/4	*
*MM[moderato]	*
=1-	=1-
{4g	{Wie
4a	sich
4b	Re-
4cc	-ssen-
=2	=2
(8b	-ran-
8g)	|
4e	-ken
4d	schwin-
4B	-gen
=3	=3
4c	in
4d	der
4e	lin-
4g	-den
=4	=4
(8g#	Lu2f-
8a)	|
(8b	-te
8cc)	|
(4cc#	Hauch,
4dd)}	|}
=5	=5
2r	.
{4g	{wie
4a	sie
=6	=6
4b	wei-
4cc	-sse
(8b	Win-
8g)	|
4e	-den
=7	=7
4d	schlin-
4c	-gen
4B	luf-
4e	-tig
=8	=8
(4d	um
4g)	|
(4f	den
4b)	|
=9	=9
([2b	Ro-
6b]	|
6cc	|
6dd)	-sen
=10	=10
(1cc	strauch:
=11	=11
2a)}	|}
2r	.
=12	=12
{4b	{Al-
4a	-so
4g	schmie-
4f#	-gen
=13	=13
4g	sich
(8b	und
8a)	|
4g	ran-
8f#	-ken
8r	.
=14	=14
4e	fru2h-
4g	-lings-
4dd	-se-
4cc}	-lig,
=15	=15
{(8b	still
8a)	|
(8g#	und
8a)	|
4gn	mild,
8f#}	|}
8r	.
=16	=16
{4dd	{mei-
4cc	-ne
4b	Tag-
4a	-und
=17	=17
4g	Nacht-
(8b	-ge-
8a)	|
4g	-dan-
4f#	-ken
=18	=18
4ee	um
4dd	ein
4cc	trau-
4b}	-tes,
=19	=19
{(8dd	lie-
8cc)	|
(8b	-bes
8a)	|
[2g	Bild,
=20	=20
2g]}	|}
2r	.
=21	=21
{2g	{mei-
2a	-ne
=22	=22
2b	Tag-
2cc	-und
=23	=23
(4b	Nacht-
4g)	|
2e	-ge-
=24	=24
2c	-dan-
2c#	-ken
=25	=25
2d	um
(4.f	ein
8e)	|
=26	=26
(2e	trau-
8e)	|
16f#	|
16e	|
8d#	|
8e}	-tes,
=27	=27
{2.b	lie-
4a	-bes
=28	=28
2g}	Bild.}
2r	.
*-	*-
